X:10
T:Monkey Puzzle
C:Chris Walshaw
R:mazurka
M:3/4
K:D
cA FA cA|BG EG BG|A4 AG|FE FG AB|
cA FA cA|BG EG BG|A4 AG|1 FG AB cd:|2 FE FG AG|]
FA dF Ad|GB dG Bd|cB AG FE|F2 D2 AG|
FA dF Ad|GB dG Bd|[1 cB AB (3cBA|dc BA GA:|[2 cB AG FE|FG AB cd|]

